app/assets/images/heroicon/outline/hand-thumb-down.svg

<svg width="24" height="24" viewBox="0 0 24 24" fill="none" xmlns="http://www.w3.org/2000/svg">
<path d="M7.49809 14.25H4.37227C3.34564 14.25 2.4267 13.556 2.31801 12.5351C2.27306 12.1129 2.25 11.6841 2.25 11.25C2.25 8.40238 3.24188 5.78642 4.899 3.72878C5.2866 3.24749 5.88581 3 6.50377 3L10.5198 3C11.0034 3 11.4839 3.07798 11.9428 3.23093L15.0572 4.26908C15.5161 4.42203 15.9966 4.5 16.4803 4.5L17.7745 4.5M7.49809 14.25C8.11638 14.25 8.48896 14.974 8.22337 15.5323C7.75956 16.5074 7.5 17.5984 7.5 18.75C7.5 19.9926 8.50736 21 9.75 21C10.1642 21 10.5 20.6642 10.5 20.25V19.6166C10.5 19.0441 10.6092 18.4769 10.8219 17.9454C11.1257 17.1857 11.7523 16.6144 12.4745 16.2298C13.5883 15.6366 14.5627 14.8162 15.3359 13.8303C15.8335 13.1958 16.5611 12.75 17.3674 12.75H17.7511M7.49809 14.25H9.7M17.7745 4.5C17.7851 4.55001 17.802 4.59962 17.8258 4.6478C18.4175 5.84708 18.75 7.19721 18.75 8.625C18.75 10.1117 18.3895 11.5143 17.7511 12.75M17.7745 4.5C17.6975 4.13534 17.9575 3.75 18.3493 3.75H19.2571C20.1458 3.75 20.9701 4.26802 21.2294 5.11804C21.5679 6.22737 21.75 7.40492 21.75 8.625C21.75 10.1775 21.4552 11.6611 20.9185 13.0229C20.6135 13.797 19.8327 14.25 19.0006 14.25H17.9479C17.476 14.25 17.2027 13.6941 17.4477 13.2907C17.5548 13.1144 17.6561 12.934 17.7511 12.75" stroke="#0F172A" stroke-width="1.5" stroke-linecap="round" stroke-linejoin="round"/>
</svg>

<svg xmlns="http://www.w3.org/2000/svg" fill="none" viewBox="0 0 24 24" stroke-width="1.5" stroke="currentColor" aria-hidden="true">
  <path stroke-linecap="round" stroke-linejoin="round" d="M7.498 14.25H4.372c-1.026 0-1.945-.694-2.054-1.715a12.137 12.137 0 01-.068-1.285c0-2.848.992-5.464 2.649-7.521C5.287 3.247 5.886 3 6.504 3h4.016a4.5 4.5 0 011.423.23l3.114 1.04a4.5 4.5 0 001.423.23h1.294M7.498 14.25c.618 0 .991.724.725 1.282A7.471 7.471 0 007.5 18.75 2.25 2.25 0 009.75 21a.75.75 0 00.75-.75v-.633c0-.573.11-1.14.322-1.672.304-.76.93-1.33 1.653-1.715a9.04 9.04 0 002.86-2.4c.498-.634 1.226-1.08 2.032-1.08h.384m-10.253 1.5H9.7m8.075-9.75c.01.05.027.1.05.148.593 1.2.925 2.55.925 3.977 0 1.487-.36 2.89-.999 4.125m.023-8.25c-.076-.365.183-.75.575-.75h.908c.889 0 1.713.518 1.972 1.368.339 1.11.521 2.287.521 3.507 0 1.553-.295 3.036-.831 4.398-.306.774-1.086 1.227-1.918 1.227h-1.053c-.472 0-.745-.556-.5-.96a8.95 8.95 0 00.303-.54"/>
</svg>
